assets/Wind face/Flat/wind_face_flat.svg

<svg width="32" height="32" viewBox="0 0 32 32" fill="none" xmlns="http://www.w3.org/2000/svg">
<path d="M9.65 6.14001L2 6.28001L2.01 30C3.59343 30 5.61813 29.9871 7.36935 29.976C8.70378 29.9675 9.87941 29.96 10.58 29.96C14.2255 29.96 15.8106 28.5034 16.4998 26.1768C16.6484 26.2676 16.8231 26.32 17.01 26.32C17.5513 26.32 17.99 25.8812 17.99 25.34C17.99 24.9089 17.7117 24.5428 17.3249 24.4117C17.7169 24.2835 18 23.9148 18 23.48C18 22.9388 17.5613 22.5 17.02 22.5C17.0115 22.5 17.0029 22.5001 16.9944 22.5003C17.0032 22.2703 17.0098 22.0368 17.0147 21.8L17.02 21.8C17.97 21.8 19.01 21.03 19.01 20.08C19.01 19.5714 18.8265 19.3208 18.4489 18.8048C18.1229 18.3594 17.6523 17.7164 17.03 16.539V13.53C17.02 9.46001 13.7 6.14001 9.65 6.14001ZM26.3651 18.545C26.4076 18.5425 26.4501 18.54 26.4701 18.54C28.5401 18.54 30.1101 20.23 30.1101 22.29C30.1101 24.35 28.4401 26.03 26.3701 26.03C26.0901 26.03 25.8101 25.99 25.5401 25.93C25.5401 26.73 24.8901 27.38 24.0901 27.38C23.3201 27.38 22.7001 26.78 22.6501 26.02C20.8401 25.87 19.4201 25.14 18.7201 24.7C18.5501 24.59 18.5901 24.33 18.7901 24.29C20.3601 23.99 21.4001 22.92 22.0501 21.93C21.4201 21.42 21.0101 20.65 21.0101 19.78C21.0101 18.24 22.2601 17 23.7901 17C24.8801 17 25.8101 17.64 26.2601 18.55C26.2801 18.55 26.3226 18.5475 26.3651 18.545Z" fill="#50E2FF"/>
<path d="M15.8888 16.3023C16.0919 16.4894 16.1048 16.8057 15.9177 17.0088C14.9098 18.1027 13.2119 18.1648 12.1291 17.1558C11.9271 16.9675 11.9159 16.6512 12.1042 16.4491C12.2924 16.2471 12.6088 16.2359 12.8108 16.4242C13.488 17.0552 14.5501 17.0173 15.1823 16.3312C15.3694 16.1281 15.6857 16.1152 15.8888 16.3023Z" fill="black"/>
<path d="M11.47 14.01C11.31 14.01 11.15 13.94 11.05 13.8C10.87 13.57 10.92 13.24 11.15 13.06C11.21 13.01 12.63 11.94 14.74 12.19C15.03 12.22 15.24 12.49 15.2 12.78C15.17 13.07 14.9 13.28 14.61 13.24C12.96 13.04 11.8 13.89 11.79 13.9C11.69 13.97 11.58 14.01 11.47 14.01Z" fill="#00A6ED"/>
<path d="M12.9 2C8.73 2 2.22 2.05 2.01 2L2 30C10.43 30 8.24 17.56 9.51 13.08C11.03 7.71 17.02 12 17.02 5.99C17.02 2.84 15.69 2 12.9 2Z" fill="#00A6ED"/>
</svg>

<svg xmlns="http://www.w3.org/2000/svg" width="32" height="32" fill="none"><path fill="#50E2FF" d="M9.65 6.14 2 6.28 2.01 30c1.583 0 3.608-.013 5.36-.024 1.334-.008 2.51-.016 3.21-.016 3.646 0 5.23-1.457 5.92-3.783a.98.98 0 1 0 .825-1.765.98.98 0 0 0-.33-1.912c.008-.23.015-.463.02-.7h.005c.95 0 1.99-.77 1.99-1.72 0-.509-.184-.76-.561-1.275a16.544 16.544 0 0 1-1.419-2.266V13.53c-.01-4.07-3.33-7.39-7.38-7.39Zm16.715 12.405.105-.005c2.07 0 3.64 1.69 3.64 3.75a3.74 3.74 0 0 1-3.74 3.74c-.28 0-.56-.04-.83-.1a1.445 1.445 0 0 1-2.89.09c-1.81-.15-3.23-.88-3.93-1.32-.17-.11-.13-.37.07-.41 1.57-.3 2.61-1.37 3.26-2.36a2.762 2.762 0 0 1-1.04-2.15A2.78 2.78 0 0 1 23.79 17c1.09 0 2.02.64 2.47 1.55l.105-.005Z"/><path fill="#000" d="M15.889 16.302a.5.5 0 0 1 .029.707 2.672 2.672 0 0 1-3.789.147.5.5 0 0 1 .682-.732c.677.631 1.74.593 2.371-.093a.5.5 0 0 1 .707-.029Z"/><path fill="#00A6ED" d="M11.47 14.01c-.16 0-.32-.07-.42-.21a.527.527 0 0 1 .1-.74c.06-.05 1.48-1.12 3.59-.87.29.03.5.3.46.59-.03.29-.3.5-.59.46-1.65-.2-2.81.65-2.82.66-.1.07-.21.11-.32.11Z"/><path fill="#00A6ED" d="M12.9 2C8.73 2 2.22 2.05 2.01 2L2 30c8.43 0 6.24-12.44 7.51-16.92 1.52-5.37 7.51-1.08 7.51-7.09C17.02 2.84 15.69 2 12.9 2Z"/></svg>
